X: 33
T: Moccasin game song (b)
N: Derived from ojibwa33.krn
C: Chippewa Songs ~ 1910
O: Red Wing, Minnesota, U.S.A
N: Chippewa Music by Frances Densmore, 1910
Z: transcribed to **kern format by Paul von Hippel and Daniel T. Shanahan
L: 1/8
M: 2/4
Q: 1/4=108
K: E clef=bass
%%linebreak <none>
C2G,3/ C/ | 
C4 | 
C G, G, F, | 
G,4 | 
C F, E, E, | 
F,4 | 
F, E, C, C, | 
E,4 | 
F, E, C, C, | 
[M:3/4]C,< C, C,> C, C, C, | 
[M:2/4]C,> C,C,2 | 
[M:3/4]C,6 | 
[M:2/4]G,2F,3/ G,/ | 
G,4 | 
C F, E, E, | 
F,4 | 
F, E, C, C, | 
E,4 | 
F, E, C, C, | 
[M:3/4]C,< C, C,> C, C, C, | 
[M:2/4]C,> C,C,2 | 
[M:3/4]C,6 |]  



